X: 3145
Q: "Strathspey."
M: C
L: 1/16
K: Am
uE2 |\
vA3vBuA3uE AAA2 (A3B) | G3DG3B dcBA G3B |\
e2 |\
{^g}a3e{g}a3e AAA2 {g}a4 | {^f}g3de3g dcBA G3e |
{^g}a3d{g}a3e AAA2 {g}a4 | {e^f}g3dg3B e4 A3e |\
{^g}a3e{g}a3e AAA2 {g}a4 | {^f}g3de3g dcBA G3B |\


